build/system/ArrowDownOneSolid.svg

<svg xmlns="http://www.w3.org/2000/svg" fill="none" viewBox="0 0 24 24" focusable="false"><path d="M0 0H24V24H0z"/><path fill="#74767B" fill-rule="evenodd" d="M20.9947 12.3123C20.9867 12.5463 20.7182 12.6683 20.5184 12.5463C19.6391 12.0094 18.6057 11.7 17.5 11.7C15.4718 11.7 13.6867 12.7411 12.65 14.318L12.65 8C12.65 7.64102 12.359 7.35 12 7.35C11.641 7.35 11.35 7.64102 11.35 8L11.35 14.9561L8.55676 12.0532C8.30785 11.7945 7.89637 11.7866 7.63769 12.0355C7.37901 12.2844 7.37109 12.6959 7.62 12.9546L11.5315 17.0197C11.5847 17.075 11.6453 17.1188 11.7103 17.1511C11.7035 17.2666 11.7 17.3829 11.7 17.5C11.7 18.6057 12.0094 19.6391 12.5463 20.5184C12.6683 20.7182 12.5463 20.9867 12.3123 20.9947C12.2086 20.9982 12.1045 21 12 21C7.02944 21 3 16.9706 3 12C3 7.02944 7.02944 3 12 3C16.9706 3 21 7.02944 21 12C21 12.1045 20.9982 12.2086 20.9947 12.3123ZM22 17.5C22 19.9853 19.9853 22 17.5 22C15.0147 22 13 19.9853 13 17.5C13 15.0147 15.0147 13 17.5 13C19.9853 13 22 15.0147 22 17.5ZM18.2289 15.0842C18.409 15.2049 18.517 15.4074 18.517 15.6241L18.517 19.3897C18.517 19.7487 18.226 20.0397 17.867 20.0397C17.508 20.0397 17.217 19.7487 17.217 19.3897L17.217 16.594L16.321 16.9622C15.9889 17.0987 15.6092 16.9401 15.4727 16.6081C15.3363 16.276 15.4948 15.8962 15.8269 15.7598L17.62 15.0229C17.8205 14.9405 18.0488 14.9635 18.2289 15.0842Z"/></svg>

<svg xmlns="http://www.w3.org/2000/svg" fill="none" viewBox="0 0 24 24" focusable="false"><path fill="#74767B" fill-rule="evenodd" d="M20.99 12.31c-.01.23-.28.35-.48.23-.88-.54-1.91-.84-3.01-.84-2.03 0-3.82 1.04-4.86 2.61V8c0-.36-.29-.65-.64-.65-.36 0-.65.29-.65.65v6.95l-2.8-2.9a.65.65 0 0 0-.92-.02c-.26.25-.26.66-.01.92l3.91 4.06c.05.06.11.1.18.14-.01.11-.01.23-.01.35 0 1.1.3 2.13.84 3.01.12.2 0 .47-.23.48-.11 0-.21.01-.31.01-4.98 0-9-4.03-9-9 0-4.98 4.02-9 9-9 4.97 0 9 4.02 9 9 0 .1-.01.2-.01.31M22 17.5c0 2.48-2.02 4.5-4.5 4.5a4.5 4.5 0 1 1 4.5-4.5m-3.78-2.42c.18.12.29.32.29.54v3.76c0 .36-.29.65-.65.65s-.65-.29-.65-.65v-2.79l-.89.37c-.34.13-.72-.02-.85-.36a.65.65 0 0 1 .35-.85l1.8-.73c.2-.08.42-.06.6.06"/></svg>
